X: 42962
T: Willie Coleman's
R: jig
M: 6/8
K: Gmajor
gGg edB|dgb age|fgg fdA|BGG Bdf|
egg ed^c|dgb age|~d3 gdB|AGF G2||

